packages/core/src/svgs/tokens/mono/ECOIN.svg

<svg width="24" height="24" viewBox="0 0 24 24" fill="none" xmlns="http://www.w3.org/2000/svg">
<path fill-rule="evenodd" clip-rule="evenodd" d="M11.9999 21.3749C17.1775 21.3749 21.375 17.1775 21.375 12C21.375 6.82249 17.1775 2.625 11.9999 2.625C6.82247 2.625 2.625 6.82249 2.625 12C2.625 17.1775 6.82247 21.3749 11.9999 21.3749ZM11.9999 21.9999C17.5231 21.9999 22 17.5231 22 12C22 6.47686 17.5231 2 11.9999 2C6.47685 2 2 6.47686 2 12C2 17.5231 6.47685 21.9999 11.9999 21.9999Z" fill="white"/>
<path d="M11.9106 3.87817C9.23995 3.87817 7.74188 5.04067 7.30001 5.32441L10.2138 6.63379C10.9525 6.41816 11.9594 6.38316 12.37 6.39254C16.7556 6.67628 17.6681 10.6912 17.5762 12.625H8.09563C8.62125 15.1356 10.2182 15.75 12.1624 15.75C13.8525 15.75 15.1306 14.4438 15.1306 13.875H17.1056C16.3325 16.6045 14.0694 17.64 12.3694 17.64C11.3856 17.64 10.6038 17.465 10.2131 17.3419L7.28564 18.6756C8.95689 19.935 11.3713 20.1682 12.3694 20.125C18.1255 20.125 20.1249 14.9532 20.1249 12.1363C20.1249 5.65004 14.7912 3.87817 11.9106 3.87817Z" fill="white"/>
<path d="M12.1563 8.25C9.6525 8.25 8.50875 10.3162 8.25 11.375H15.7499C15.5956 10.3499 14.3587 8.25 12.1563 8.25Z" fill="white"/>
</svg>

<svg xmlns="http://www.w3.org/2000/svg" width="24" height="24" fill="none" viewBox="0 0 24 24">
    <path fill="#fff" fill-rule="evenodd" d="M12 21.375a9.375 9.375 0 1 0 0-18.75 9.375 9.375 0 0 0 0 18.75M12 22c5.523 0 10-4.477 10-10S17.523 2 12 2 2 6.477 2 12s4.477 10 10 10" clip-rule="evenodd"/>
    <path fill="#fff" d="M11.91 3.878c-2.67 0-4.168 1.163-4.61 1.446l2.914 1.31c.739-.216 1.745-.25 2.156-.241 4.386.283 5.298 4.298 5.206 6.232h-9.48c.525 2.51 2.122 3.125 4.066 3.125 1.69 0 2.969-1.306 2.969-1.875h1.975c-.774 2.73-3.037 3.765-4.737 3.765-.983 0-1.765-.175-2.156-.298l-2.927 1.334c1.67 1.259 4.085 1.492 5.083 1.449 5.756 0 7.756-5.172 7.756-7.989 0-6.486-5.334-8.258-8.214-8.258"/>
    <path fill="#fff" d="M12.156 8.25c-2.504 0-3.647 2.066-3.906 3.125h7.5c-.154-1.025-1.391-3.125-3.594-3.125"/>
</svg>
